X: 1154
T: Melancholy Martin.
B:O'Neill's Music of Ireland
N:O'Neill's - 1154
Z:Transcribed by Stephen Foy (shf@access.digex.net)
Z:abc 1.6
M:9/8
R:slipjig
K:A
E|A2 A BcA GFE|A2 A B2 B e2 E|A2 A BcA GFE|F2 F G2 E A2:|
|:E|AGF EDC DE(F/G/)|A2 E G2 A B2 E|A2 A BcA GFE|F2 F G2 E A2:|


